**kern	**silbe	**harmony	**phrase	**leadinstrument	**rhyme	**timestamp	**harte
*ICvox	*	*M4/4	*	*	*	*	*M4/4
*VRlead	*	*	*	*	*	*	*
*Hstimme	*	*	*	*	*	*	*
*A:	*	*A:	*	*	*	*	*A:
*M4/4	*	*	*	*	*	*	*
*clefG2	*	*	*	*	*	*	*
r;	.	1r;	.	r	.	0	N.C.
=1	=1	=1	=1	=1	=1	=1	=1
*>Letter>A	*>Letter>A	*>Letter>A	*>Letter>A	*>Letter>A	*>Letter>A	*>Letter>A	*>Letter>A
*>Label>Intro	*>Label>Intro	*>Label>Intro	*>Label>Intro	*>Label>Intro	*>Label>Intro	*>Label>Intro	*>Label>Intro
1r	.	1AM	newline	guitar	.	1.004	A:maj
=2	=2	=2	=2	=2	=2	=2	=2
1r	.	1AM	.	guitar	.	3.064	A:maj
=3	=3	=3	=3	=3	=3	=3	=3
1r	.	1AM	.	guitar	.	5.123	A:maj
=4	=4	=4	=4	=4	=4	=4	=4
1r	.	1AM	.	guitar	.	7.182	A:maj
=5	=5	=5	=5	=5	=5	=5	=5
1r	.	1GM	newline	guitar	.	9.242	G:maj
=6	=6	=6	=6	=6	=6	=6	=6
1r	.	1GM	.	guitar	.	11.308	G:maj
=7	=7	=7	=7	=7	=7	=7	=7
*>Letter>B	*>Letter>B	*>Letter>B	*>Letter>B	*>Letter>B	*>Letter>B	*>Letter>B	*>Letter>B
*>Label>Verse	*>Label>Verse	*>Label>Verse	*>Label>Verse	*>Label>Verse	*>Label>Verse	*>Label>Verse	*>Label>Verse
8r	.	1AM	newline	voice	.	13.375	A:maj
8c#	You're	.	.	.	.	.	.
8c#	not	.	.	.	.	.	.
8c#	sure	.	.	.	.	.	.
8c#	what	.	.	.	.	.	.
8B	you	.	.	.	.	.	.
8B	want	.	.	.	.	.	.
8B	to	.	.	.	.	.	.
=8	=8	=8	=8	=8	=8	=8	=8
8B	do	1AM	.	voice	.	15.441	A:maj
8A	with	.	.	.	.	.	.
8A	your	.	.	.	.	.	.
8A	life,	.	.	.	.	.	.
8r	.	.	.	.	.	.	.
8c#	but	.	.	.	.	.	.
4c#	you	.	.	.	.	.	.
=9	=9	=9	=9	=9	=9	=9	=9
4c#	sure	1DM	.	voice	.	17.508	D:maj
8B	don't	.	.	.	.	.	.
8B	want	.	.	.	.	.	.
8A	me	.	.	.	.	.	.
8B	in	.	.	.	(A	.	.
4c#	it.	.	.	.	a)	.	.
=10	=10	=10	=10	=10	=10	=10	=10
1r	.	1DM	.	voice	.	19.574	D:maj
=11	=11	=11	=11	=11	=11	=11	=11
4r	.	1AM	newline	voice	.	21.641	A:maj
8c#	Yeah,	.	.	.	.	.	.
8c#	you're	.	.	.	.	.	.
8c#	sure	.	.	.	.	.	.
8B	the	.	.	.	.	.	.
8B	life	.	.	.	.	.	.
8B	you're	.	.	.	.	.	.
=12	=12	=12	=12	=12	=12	=12	=12
8B	li-	1AM	.	voice	.	23.708	A:maj
8A	-ving	.	.	.	.	.	.
8A	with	.	.	.	.	.	.
8A	me	.	.	.	.	.	.
6r	.	.	.	.	.	.	.
6c#	can't	.	.	.	.	.	.
6c#	go	.	.	.	.	.	.
=13	=13	=13	=13	=13	=13	=13	=13
4c#	on	1DM	.	voice	.	25.774	D:maj
4B	one	.	.	.	.	.	.
8B	sin-	.	.	.	.	.	.
8A	-gle	.	.	.	.	.	.
8B	mi-	.	.	.	(A	.	.
8c#	-nute.	.	.	.	a)	.	.
=14	=14	=14	=14	=14	=14	=14	=14
1r	.	2DM	.	voice	.	27.841	D:maj
.	.	4GM	.	voice	.	28.874	G:maj
.	.	4DM	.	voice	.	29.391	D:maj
=15	=15	=15	=15	=15	=15	=15	=15
8r	.	1EM	newline	voice	.	29.907	E:maj
8A	And	.	.	.	.	.	.
8e	there's	.	.	.	.	.	.
8e	a	.	.	.	.	.	.
8e	new	.	.	.	.	.	.
8d	one	.	.	.	.	.	.
8d	wait-	.	.	.	.	.	.
8d	-ing	.	.	.	.	.	.
=16	=16	=16	=16	=16	=16	=16	=16
8d	out-	1F#m	.	voice	.	31.974	F#:min
8c#	-side	.	.	.	.	.	.
8c#	this	.	.	.	.	.	.
[8c#	door.	.	.	.	.	.	.
8c#]	_	.	.	.	.	.	.
8A	And	.	.	.	.	.	.
8e	now's	.	.	.	.	.	.
8e	the	.	.	.	.	.	.
=17	=17	=17	=17	=17	=17	=17	=17
4e	time	1DM	.	voice	.	34.04	D:maj
12A	to	.	.	.	.	.	.
12A	be-	.	.	.	.	.	.
12B	-gin	.	.	.	(A	.	.
4c#	it.	.	.	.	a)	.	.
4r	.	.	.	.	.	.	.
=18	=18	=18	=18	=18	=18	=18	=18
1r	.	2DM	.	voice	.	36.107	D:maj
.	.	4GM	.	voice	.	37.14	G:maj
.	.	4DM	.	voice	.	37.657	D:maj
=19	=19	=19	=19	=19	=19	=19	=19
*>Letter>C	*>Letter>C	*>Letter>C	*>Letter>C	*>Letter>C	*>Letter>C	*>Letter>C	*>Letter>C
*>Label>Prechorus	*>Label>Prechorus	*>Label>Prechorus	*>Label>Prechorus	*>Label>Prechorus	*>Label>Prechorus	*>Label>Prechorus	*>Label>Prechorus
4r	.	1EM	newline	voice	.	38.174	E:maj
8r	.	.	.	.	.	.	.
8b	You	.	.	.	.	.	.
8b	found	.	.	.	.	.	.
8b	a	.	.	.	.	.	.
8cc#	new	.	.	.	.	.	.
[8dd	world	.	.	.	.	.	.
=20	=20	=20	=20	=20	=20	=20	=20
4dd]	_	1DM	.	voice	.	40.217	D:maj
8a	and	.	.	.	.	.	.
8a	you	.	.	.	.	.	.
8a	want	.	.	.	.	.	.
8a	to	.	.	.	.	.	.
8f#	taste	.	.	.	B	.	.
8e	it,	.	.	.	.	.	.
=21	=21	=21	=21	=21	=21	=21	=21
4r	.	1EM	.	voice	.	42.26	E:maj
8b	but	.	.	.	.	.	.
8b	that	.	.	.	.	.	.
8b	world	.	.	.	.	.	.
8b	can	.	.	.	.	.	.
8cc#	turn	.	.	.	.	.	.
[8dd	cold	.	.	.	.	.	.
=22	=22	=22	=22	=22	=22	=22	=22
8dd]	_	1DM	.	voice	.	44.304	D:maj
8r	.	.	.	.	.	.	.
16r	.	.	.	.	.	.	.
16a	and	.	.	.	.	.	.
8a	you	.	.	.	.	.	.
8dd	bet-	.	.	.	.	.	.
8cc#	-ter	.	.	.	.	.	.
8dd	face	.	.	.	B	.	.
[8ee	it.	.	.	.	.	.	.
=23	=23	=23	=23	=23	=23	=23	=23
*>Letter>D	*>Letter>D	*>Letter>D	*>Letter>D	*>Letter>D	*>Letter>D	*>Letter>D	*>Letter>D
*>Label>Chorus	*>Label>Chorus	*>Label>Chorus	*>Label>Chorus	*>Label>Chorus	*>Label>Chorus	*>Label>Chorus	*>Label>Chorus
4ee]	_	1AM	newline	voice	.	46.347	A:maj
4r	.	.	.	.	.	.	.
8cc#	Who	.	.	.	.	.	.
8cc#	will	.	.	.	.	.	.
8cc#	you	.	.	.	.	.	.
[8cc#	run	.	.	.	.	.	.
=24	=24	=24	=24	=24	=24	=24	=24
8cc#]	_	1EM	.	voice	.	48.414	E:maj/3
8b	to	.	.	.	.	.	.
8b	when	.	.	.	.	.	.
8a	it	.	.	.	.	.	.
4b	all	.	.	.	.	.	.
4cc#	falls	.	.	.	.	.	.
=25	=25	=25	=25	=25	=25	=25	=25
4a	down?	1DM	.	voice	C	50.48	D:maj
4r	.	.	.	.	.	.	.
8a	Who's	.	.	.	.	.	.
8a	gon-	.	.	.	.	.	.
8a	-na	.	.	.	.	.	.
[8cc#	pick	.	.	.	.	.	.
=26	=26	=26	=26	=26	=26	=26	=26
8cc#]	_	1GM	.	voice	.	52.547	G:maj
8f#	your	.	.	.	.	.	.
8a	world	.	.	.	.	.	.
8a	up	.	.	.	.	.	.
6cc#	off	.	.	.	.	.	.
6f#	of	.	.	.	.	.	.
[6a	the	.	.	.	.	.	.
=27	=27	=27	=27	=27	=27	=27	=27
8a]	_	1AM	newline	voice	.	54.613	A:maj
8a	ground?	.	.	.	C	.	.
4r	.	.	.	.	.	.	.
8cc#	Who's	.	.	.	.	.	.
8cc#	gon-	.	.	.	.	.	.
8cc#	-na	.	.	.	.	.	.
[8cc#	take	.	.	.	.	.	.
=28	=28	=28	=28	=28	=28	=28	=28
8cc#]	_	1EM	.	voice	.	56.692	E:maj/3
8b	a-	.	.	.	.	.	.
8b	-way	.	.	.	.	.	.
8a	the	.	.	.	.	.	.
4b	tears	.	.	.	.	.	.
4cc#	you	.	.	.	.	.	.
=29	=29	=29	=29	=29	=29	=29	=29
4a	cry?	1DM	.	voice	D	58.77	D:maj
4r	.	.	.	.	.	.	.
8a	Who's	.	.	.	.	.	.
8a	gon-	.	.	.	.	.	.
8a	-na	.	.	.	.	.	.
[8b	love	.	.	.	.	.	.
=30	=30	=30	=30	=30	=30	=30	=30
8b]	_	1GM	.	voice	.	60.848	G:maj
8f#	you	.	.	.	.	.	.
8a	ba-	.	.	.	.	.	.
8a	-by	.	.	.	.	.	.
8a	as	.	.	.	.	.	.
8cc#	good	.	.	.	.	.	.
[4a	as	.	.	.	.	.	.
=31	=31	=31	=31	=31	=31	=31	=31
*>Letter>A	*>Letter>A	*>Letter>A	*>Letter>A	*>Letter>A	*>Letter>A	*>Letter>A	*>Letter>A
*>Label>Trans	*>Label>Trans	*>Label>Trans	*>Label>Trans	*>Label>Trans	*>Label>Trans	*>Label>Trans	*>Label>Trans
8a]	_	1AM	newline	guitar	.	62.926	A:maj
4.a	I?	.	.	.	D	.	.
2r	.	.	.	.	.	.	.
=32	=32	=32	=32	=32	=32	=32	=32
1r	.	1AM	.	guitar	.	64.993	A:maj
=33	=33	=33	=33	=33	=33	=33	=33
1r	.	1AM	.	guitar	.	67.059	A:maj
=34	=34	=34	=34	=34	=34	=34	=34
1r	.	1AM	.	guitar	.	69.126	A:maj
=35	=35	=35	=35	=35	=35	=35	=35
1r	.	1GM	newline	guitar	.	71.192	G:maj
=36	=36	=36	=36	=36	=36	=36	=36
1r	.	1GM	.	guitar	.	73.236	G:maj
=37	=37	=37	=37	=37	=37	=37	=37
*>Letter>B	*>Letter>B	*>Letter>B	*>Letter>B	*>Letter>B	*>Letter>B	*>Letter>B	*>Letter>B
*>Label>Verse	*>Label>Verse	*>Label>Verse	*>Label>Verse	*>Label>Verse	*>Label>Verse	*>Label>Verse	*>Label>Verse
8r	.	1AM	newline	voice	.	75.279	A:maj
8c#	You	.	.	.	.	.	.
8c#	won't	.	.	.	.	.	.
8c#	know	.	.	.	.	.	.
8c#	what	.	.	.	.	.	.
8B	it's	.	.	.	.	.	.
8B	like	.	.	.	.	.	.
8B	to	.	.	.	.	.	.
=38	=38	=38	=38	=38	=38	=38	=38
8B	live	1AM	.	voice	.	77.334	A:maj
8A	on	.	.	.	.	.	.
8A	your	.	.	.	.	.	.
8A	own.	.	.	.	.	.	.
4r	.	.	.	.	.	.	.
12c#	You've	.	.	.	.	.	.
12c#	al-	.	.	.	.	.	.
12c#	-ways	.	.	.	.	.	.
=39	=39	=39	=39	=39	=39	=39	=39
8c#	had	1DM	.	voice	.	79.389	D:maj
8B	me	.	.	.	.	.	.
8B	there	.	.	.	.	.	.
8A	be-	.	.	.	.	.	.
4B	-side	.	.	.	D	.	.
4c#	you.	.	.	.	E	.	.
=40	=40	=40	=40	=40	=40	=40	=40
1r	.	1DM	.	voice	.	81.444	D:maj
=41	=41	=41	=41	=41	=41	=41	=41
8r	.	1AM	newline	voice	.	83.499	A:maj
8c#	You	.	.	.	.	.	.
8c#	think	.	.	.	.	.	.
8c#	it's	.	.	.	.	.	.
8c#	ea-	.	.	.	.	.	.
8B	-sy	.	.	.	.	.	.
8B	fin-	.	.	.	.	.	.
8B	-ding	.	.	.	.	.	.
=42	=42	=42	=42	=42	=42	=42	=42
8B	some-	1AM	.	voice	.	85.566	A:maj
8A	-one	.	.	.	.	.	.
8A	out	.	.	.	.	.	.
8A	there	.	.	.	.	.	.
8r	.	.	.	.	.	.	.
8c#	who's	.	.	.	.	.	.
8c#	gon-	.	.	.	.	.	.
8c#	-na	.	.	.	.	.	.
=43	=43	=43	=43	=43	=43	=43	=43
4e	care	1DM	.	voice	.	87.632	D:maj
12c#	as	.	.	.	.	.	.
12B	much	.	.	.	.	.	.
12A	as	.	.	.	.	.	.
4.B	I	.	.	.	D	.	.
[8A	do.	.	.	.	E	.	.
=44	=44	=44	=44	=44	=44	=44	=44
4A]	_	2DM	.	voice	.	89.699	D:maj
4r	.	.	.	.	.	.	.
2r	.	4GM	.	voice	.	90.732	G:maj
.	.	4DM	.	voice	.	91.249	D:maj
=45	=45	=45	=45	=45	=45	=45	=45
8r	.	1EM	newline	voice	.	91.765	E:maj
8e	What's	.	.	.	.	.	.
8e	gon-	.	.	.	.	.	.
8e	-na	.	.	.	.	.	.
8e	hap-	.	.	.	.	.	.
8d	-pen	.	.	.	.	.	.
8d	ba-	.	.	.	.	.	.
8d	-by	.	.	.	.	.	.
=46	=46	=46	=46	=46	=46	=46	=46
8d	when	1F#m	.	voice	.	93.832	F#:min
8c#	you	.	.	.	.	.	.
8c#	find	.	.	.	.	.	.
8c#	out	.	.	.	.	.	.
4r	.	.	.	.	.	.	.
8e	there's	.	.	.	.	.	.
8e	no	.	.	.	.	.	.
=47	=47	=47	=47	=47	=47	=47	=47
8e	one	1DM	.	voice	.	95.898	D:maj
8e	there	.	.	.	.	.	.
8A	to	.	.	.	.	.	.
4B	cry	.	.	.	D	.	.
4.c#	to?	.	.	.	E	.	.
=48	=48	=48	=48	=48	=48	=48	=48
1r	.	2DM	.	voice	.	97.965	D:maj
.	.	4GM	.	voice	.	98.998	G:maj
.	.	4DM	.	voice	.	99.515	D:maj
=49	=49	=49	=49	=49	=49	=49	=49
*>Letter>C	*>Letter>C	*>Letter>C	*>Letter>C	*>Letter>C	*>Letter>C	*>Letter>C	*>Letter>C
*>Label>Prechorus	*>Label>Prechorus	*>Label>Prechorus	*>Label>Prechorus	*>Label>Prechorus	*>Label>Prechorus	*>Label>Prechorus	*>Label>Prechorus
4r	.	1EM	newline	voice	.	100.032	E:maj
8b	You	.	.	.	.	.	.
8b	can	.	.	.	.	.	.
8b	tell	.	.	.	.	.	.
8b	the	.	.	.	.	.	.
8cc#	whole	.	.	.	.	.	.
[8dd	world	.	.	.	.	.	.
=50	=50	=50	=50	=50	=50	=50	=50
4dd]	_	1DM	.	voice	.	102.087	D:maj
8a	how	.	.	.	.	.	.
8a	you're	.	.	.	.	.	.
8a	gon-	.	.	.	.	.	.
8a	-na	.	.	.	.	.	.
8f#	make	.	.	.	B	.	.
8e	it.	.	.	.	.	.	.
=51	=51	=51	=51	=51	=51	=51	=51
4r	.	1EM	.	voice	.	104.141	E:maj
8b	You	.	.	.	.	.	.
8b	can	.	.	.	.	.	.
8b	fol-	.	.	.	.	.	.
8b	-low	.	.	.	.	.	.
8cc#	you	.	.	.	.	.	.
8dd	heart,	.	.	.	.	.	.
=52	=52	=52	=52	=52	=52	=52	=52
8r	.	1DM	.	voice	.	106.196	D:maj
16a	what	.	.	.	.	.	.
16a	you	.	.	.	.	.	.
8dd	do	.	.	.	.	.	.
8a	when	.	.	.	.	.	.
8dd	some-	.	.	.	.	.	.
8cc#	-one	.	.	.	.	.	.
8dd	breaks	.	.	.	B	.	.
[8ee	it?	.	.	.	.	.	.
=53	=53	=53	=53	=53	=53	=53	=53
*>Letter>D	*>Letter>D	*>Letter>D	*>Letter>D	*>Letter>D	*>Letter>D	*>Letter>D	*>Letter>D
*>Label>Chorus	*>Label>Chorus	*>Label>Chorus	*>Label>Chorus	*>Label>Chorus	*>Label>Chorus	*>Label>Chorus	*>Label>Chorus
4ee]	_	1AM	newline	voice	.	108.251	A:maj
4r	.	.	.	.	.	.	.
8cc#	Who	.	.	.	.	.	.
8cc#	will	.	.	.	.	.	.
8cc#	you	.	.	.	.	.	.
[8cc#	run	.	.	.	.	.	.
=54	=54	=54	=54	=54	=54	=54	=54
8cc#]	_	1EM	.	voice	.	110.33	E:maj/3
8b	to	.	.	.	.	.	.
8b	when	.	.	.	.	.	.
8a	it	.	.	.	.	.	.
4b	all	.	.	.	.	.	.
4cc#	falls	.	.	.	.	.	.
=55	=55	=55	=55	=55	=55	=55	=55
4a	down?	1DM	.	voice	C	112.408	D:maj
4r	.	.	.	.	.	.	.
8a	Who's	.	.	.	.	.	.
8a	gon-	.	.	.	.	.	.
8a	-na	.	.	.	.	.	.
[8cc#	pick	.	.	.	.	.	.
=56	=56	=56	=56	=56	=56	=56	=56
8cc#]	_	1GM	.	voice	.	114.486	G:maj
8f#	you	.	.	.	.	.	.
8a	world	.	.	.	.	.	.
8a	up	.	.	.	.	.	.
6cc#	off	.	.	.	.	.	.
6f#	of	.	.	.	.	.	.
[6a	the	.	.	.	.	.	.
=57	=57	=57	=57	=57	=57	=57	=57
8a]	_	1AM	newline	voice	.	116.564	A:maj
8a	ground?	.	.	.	C	.	.
4r	.	.	.	.	.	.	.
8cc#	Who's	.	.	.	.	.	.
8cc#	gon-	.	.	.	.	.	.
8cc#	-na	.	.	.	.	.	.
[8cc#	take	.	.	.	B	.	.
=58	=58	=58	=58	=58	=58	=58	=58
8cc#]	_	1EM	.	voice	.	118.631	E:maj/3
8b	a-	.	.	.	.	.	.
8b	-way	.	.	.	.	.	.
8a	the	.	.	.	.	.	.
4b	tears	.	.	.	.	.	.
4cc#	you	.	.	.	.	.	.
=59	=59	=59	=59	=59	=59	=59	=59
4a	cry?	1DM	.	voice	D	120.697	D:maj
4r	.	.	.	.	.	.	.
8a	Who's	.	.	.	.	.	.
8a	gon-	.	.	.	.	.	.
8a	-na	.	.	.	.	.	.
[8b	love	.	.	.	.	.	.
=60	=60	=60	=60	=60	=60	=60	=60
8b]	_	1GM	.	voice	.	122.764	G:maj
8f#	you	.	.	.	.	.	.
8a	ba-	.	.	.	.	.	.
8a	-by	.	.	.	.	.	.
8a	as	.	.	.	.	.	.
8cc#	good	.	.	.	.	.	.
[4a	as	.	.	.	.	.	.
=61	=61	=61	=61	=61	=61	=61	=61
*>Letter>A	*>Letter>A	*>Letter>A	*>Letter>A	*>Letter>A	*>Letter>A	*>Letter>A	*>Letter>A
*>Label>Solo	*>Label>Solo	*>Label>Solo	*>Label>Solo	*>Label>Solo	*>Label>Solo	*>Label>Solo	*>Label>Solo
8a]	_	1AM	newline	guitar	.	124.83	A:maj
16a	I?	.	.	.	D	.	.
16f#	_	.	.	.	.	.	.
8e	_	.	.	.	.	.	.
8r	.	.	.	.	.	.	.
2r	.	.	.	.	.	.	.
=62	=62	=62	=62	=62	=62	=62	=62
1r	.	1AM	.	guitar	.	126.897	A:maj
=63	=63	=63	=63	=63	=63	=63	=63
1r	.	1AM	.	guitar	.	128.964	A:maj
=64	=64	=64	=64	=64	=64	=64	=64
1r	.	1AM	.	guitar	.	131.03	A:maj
=65	=65	=65	=65	=65	=65	=65	=65
1r	.	1GM	newline	guitar	.	133.097	G:maj
=66	=66	=66	=66	=66	=66	=66	=66
1r	.	1GM	.	guitar	.	135.14	G:maj
=67	=67	=67	=67	=67	=67	=67	=67
1r	.	1AM	newline	guitar	.	137.183	A:maj
=68	=68	=68	=68	=68	=68	=68	=68
1r	.	1AM	.	guitar	.	139.25	A:maj
=69	=69	=69	=69	=69	=69	=69	=69
1r	.	1AM	.	guitar	.	141.317	A:maj
=70	=70	=70	=70	=70	=70	=70	=70
1r	.	1AM	.	guitar	.	143.383	A:maj
=71	=71	=71	=71	=71	=71	=71	=71
1r	.	1GM	newline	guitar	.	145.45	G:maj
=72	=72	=72	=72	=72	=72	=72	=72
1r	.	1GM	.	guitar	.	147.493	G:maj
=73	=73	=73	=73	=73	=73	=73	=73
*>Letter>C2	*>Letter>C2	*>Letter>C2	*>Letter>C2	*>Letter>C2	*>Letter>C2	*>Letter>C2	*>Letter>C2
*>Label>Prechorus	*>Label>Prechorus	*>Label>Prechorus	*>Label>Prechorus	*>Label>Prechorus	*>Label>Prechorus	*>Label>Prechorus	*>Label>Prechorus
4r	.	1EM	newline	voice	.	149.537	E:maj
8r	.	.	.	.	.	.	.
8b	You	.	.	.	.	.	.
8b	found	.	.	.	.	.	.
8b	a	.	.	.	.	.	.
8cc#	new	.	.	.	.	.	.
[8dd	world	.	.	.	.	.	.
=74	=74	=74	=74	=74	=74	=74	=74
4dd]	_	1DM	.	voice	.	151.598	D:maj
8a	and	.	.	.	.	.	.
8a	you	.	.	.	.	.	.
8a	want	.	.	.	.	.	.
8a	to	.	.	.	.	.	.
8f#	taste	.	.	.	B	.	.
8e	it,	.	.	.	.	.	.
=75	=75	=75	=75	=75	=75	=75	=75
4r	.	1EM	.	voice	.	153.66	E:maj
8b	but	.	.	.	.	.	.
8b	that	.	.	.	.	.	.
8b	world	.	.	.	.	.	.
8b	can	.	.	.	.	.	.
8cc#	turn	.	.	.	.	.	.
[8dd	cold	.	.	.	.	.	.
=76	=76	=76	=76	=76	=76	=76	=76
4dd]	_	1DM	.	voice	.	155.722	D:maj
8r	.	.	.	.	.	.	.
16a	and	.	.	.	.	.	.
16a	you	.	.	.	.	.	.
8dd	bet-	.	.	.	.	.	.
8cc#	-ter	.	.	.	.	.	.
8dd	face	.	.	.	B	.	.
[8ee	it.	.	.	.	.	.	.
=77	=77	=77	=77	=77	=77	=77	=77
1ee]	_	1DM	.	voice	.	157.784	D:maj
=78	=78	=78	=78	=78	=78	=78	=78
*>Letter>D2	*>Letter>D2	*>Letter>D2	*>Letter>D2	*>Letter>D2	*>Letter>D2	*>Letter>D2	*>Letter>D2
*>Label>Chorus	*>Label>Chorus	*>Label>Chorus	*>Label>Chorus	*>Label>Chorus	*>Label>Chorus	*>Label>Chorus	*>Label>Chorus
2r	.	1AM	newline	voice	.	159.846	A:maj
8cc#	Who	.	.	.	.	.	.
8cc#	will	.	.	.	.	.	.
8cc#	you	.	.	.	.	.	.
[8cc#	run	.	.	.	.	.	.
=79	=79	=79	=79	=79	=79	=79	=79
8cc#]	_	1EM	.	voice	.	161.913	E:maj/3
8b	to	.	.	.	.	.	.
8b	when	.	.	.	.	.	.
8a	it	.	.	.	.	.	.
4b	all	.	.	.	.	.	.
4cc#	falls	.	.	.	.	.	.
=80	=80	=80	=80	=80	=80	=80	=80
4a	down?	1DM	.	voice	C	163.979	D:maj
4r	.	.	.	.	.	.	.
8a	Who's	.	.	.	.	.	.
8a	gon-	.	.	.	.	.	.
8a	-na	.	.	.	.	.	.
[8cc#	pick	.	.	.	.	.	.
=81	=81	=81	=81	=81	=81	=81	=81
8cc#]	_	1GM	.	voice	.	166.046	G:maj
8f#	you	.	.	.	.	.	.
8a	world	.	.	.	.	.	.
8a	up	.	.	.	.	.	.
6cc#	off	.	.	.	.	.	.
6f#	of	.	.	.	.	.	.
[6a	the	.	.	.	.	.	.
=82	=82	=82	=82	=82	=82	=82	=82
8a]	_	1AM	newline	voice	.	168.112	A:maj
8a	ground?	.	.	.	C	.	.
8f#	_	.	.	.	.	.	.
8r	.	.	.	.	.	.	.
8cc#	Who's	.	.	.	.	.	.
8cc#	gon-	.	.	.	.	.	.
8cc#	-na	.	.	.	.	.	.
[8cc#	take	.	.	.	.	.	.
=83	=83	=83	=83	=83	=83	=83	=83
8cc#]	_	1EM	.	voice	.	170.156	E:maj/3
8b	a-	.	.	.	.	.	.
8b	-way	.	.	.	.	.	.
8a	the	.	.	.	.	.	.
4b	tears	.	.	.	.	.	.
4cc#	you	.	.	.	.	.	.
=84	=84	=84	=84	=84	=84	=84	=84
4a	cry?	1GM	.	voice	D	172.199	G:maj
4r	.	.	.	.	.	.	.
8a	Who's	.	.	.	.	.	.
8a	gon-	.	.	.	.	.	.
8a	-na	.	.	.	.	.	.
[8b	love	.	.	.	.	.	.
=85	=85	=85	=85	=85	=85	=85	=85
8b]	_	1GM	.	voice	.	174.243	G:maj
8f#	you	.	.	.	.	.	.
8a	ba-	.	.	.	.	.	.
8a	-by	.	.	.	.	.	.
8a	as	.	.	.	.	.	.
8cc#	good	.	.	.	.	.	.
[4a	as	.	.	.	.	.	.
=86	=86	=86	=86	=86	=86	=86	=86
*>Letter>A2	*>Letter>A2	*>Letter>A2	*>Letter>A2	*>Letter>A2	*>Letter>A2	*>Letter>A2	*>Letter>A2
*>Label>Trans	*>Label>Trans	*>Label>Trans	*>Label>Trans	*>Label>Trans	*>Label>Trans	*>Label>Trans	*>Label>Trans
8a]	_	1AM	newline	guitar	.	176.286	A:maj
4.a	I?	.	.	.	D	.	.
2r	.	.	.	.	.	.	.
=87	=87	=87	=87	=87	=87	=87	=87
1r	.	1AM	.	guitar	.	178.399	A:maj
=88	=88	=88	=88	=88	=88	=88	=88
*>Letter>D2	*>Letter>D2	*>Letter>D2	*>Letter>D2	*>Letter>D2	*>Letter>D2	*>Letter>D2	*>Letter>D2
*>Label>Outro	*>Label>Outro	*>Label>Outro	*>Label>Outro	*>Label>Outro	*>Label>Outro	*>Label>Outro	*>Label>Outro
2r	.	1AM	newline	voice	.	180.512	A:maj
8cc#	Who	.	.	.	.	.	.
8cc#	will	.	.	.	.	.	.
8cc#	you	.	.	.	.	.	.
[8cc#	run	.	.	.	.	.	.
=89	=89	=89	=89	=89	=89	=89	=89
8cc#]	_	1EM	.	voice	.	182.579	E:maj/3
8b	to	.	.	.	.	.	.
8b	when	.	.	.	.	.	.
8a	it	.	.	.	.	.	.
4b	all	.	.	.	.	.	.
4cc#	falls	.	.	.	.	.	.
=90	=90	=90	=90	=90	=90	=90	=90
4a	down?	1GM	.	voice	C	184.645	G:maj
4r	.	.	.	.	.	.	.
8a	Who's	.	.	.	.	.	.
8a	gon-	.	.	.	.	.	.
8a	-na	.	.	.	.	.	.
[8cc#	pick	.	.	.	.	.	.
=91	=91	=91	=91	=91	=91	=91	=91
8cc#]	_	1GM	.	voice	.	186.712	G:maj
8f#	you	.	.	.	.	.	.
8a	world	.	.	.	.	.	.
8a	up	.	.	.	.	.	.
6cc#	off	.	.	.	.	.	.
6f#	of	.	.	.	.	.	.
[6a	the	.	.	.	.	.	.
=92	=92	=92	=92	=92	=92	=92	=92
8a]	_	1AM	newline	voice	.	188.778	A:maj
8a	ground?	.	.	.	C	.	.
8f#	_	.	.	.	.	.	.
8r	.	.	.	.	.	.	.
8cc#	Who's	.	.	.	.	.	.
8cc#	gon-	.	.	.	.	.	.
8cc#	-na	.	.	.	.	.	.
[8cc#	take	.	.	.	.	.	.
=93	=93	=93	=93	=93	=93	=93	=93
8cc#]	_	1EM	.	voice	.	190.833	E:maj/3
8b	a-	.	.	.	.	.	.
8b	-way	.	.	.	.	.	.
8a	the	.	.	.	.	.	.
4b	tears	.	.	.	.	.	.
4cc#	you	.	.	.	.	.	.
=94	=94	=94	=94	=94	=94	=94	=94
4a	cry?	1GM	.	voice	D	192.888	G:maj
4r	.	.	.	.	.	.	.
8a	Who's	.	.	.	.	.	.
8a	gon-	.	.	.	.	.	.
8a	-na	.	.	.	.	.	.
[8b	love	.	.	.	.	.	.
=95	=95	=95	=95	=95	=95	=95	=95
8b]	_	1GM	.	voice	.	194.943	G:maj
8f#	you	.	.	.	.	.	.
8a	ba-	.	.	.	.	.	.
8a	-by	.	.	.	.	.	.
8a	as	.	.	.	.	.	.
8cc#	good	.	.	.	.	.	.
[4a	as	.	.	.	.	.	.
=96	=96	=96	=96	=96	=96	=96	=96
8a]	_	1AM	newline	guitar	.	196.998	A:maj
4.a	I?	.	.	.	D	.	.
2r	.	.	.	.	.	.	.
=97	=97	=97	=97	=97	=97	=97	=97
1r	.	1EM	.	guitar	.	199.053	E:maj/3
=98	=98	=98	=98	=98	=98	=98	=98
1r	.	1GM	.	guitar	.	201.108	G:maj
=99	=99	=99	=99	=99	=99	=99	=99
1r	.	1GM	.	guitar	.	203.163	G:maj
=100	=100	=100	=100	=100	=100	=100	=100
1r	.	1AM	newline	guitar	.	205.218	A:maj
=101	=101	=101	=101	=101	=101	=101	=101
1r	.	1EM	.	guitar	.	207.285	E:maj/3
=102	=102	=102	=102	=102	=102	=102	=102
1r	.	1GM	.	guitar	.	209.351	G:maj
=103	=103	=103	=103	=103	=103	=103	=103
1r	.	1GM	.	guitar	.	211.418	G:maj
=104	=104	=104	=104	=104	=104	=104	=104
1r	.	1AM	newline	guitar	.	213.484	A:maj
=105	=105	=105	=105	=105	=105	=105	=105
1r	.	1EM	.	guitar	.	215.551	E:maj/3
=106	=106	=106	=106	=106	=106	=106	=106
1r	.	1GM	.	guitar	.	217.617	G:maj
=107	=107	=107	=107	=107	=107	=107	=107
1r	.	1GM	.	guitar	.	219.684	G:maj
=108	=108	=108	=108	=108	=108	=108	=108
*>Label>>Fadeout	*>Label>>Fadeout	*>Label>>Fadeout	*>Label>>Fadeout	*>Label>>Fadeout	*>Label>>Fadeout	*>Label>>Fadeout	*>Label>>Fadeout
1r	.	1AM	newline	guitar	.	221.751	A:maj
=109	=109	=109	=109	=109	=109	=109	=109
1r	.	1EM	.	guitar	.	223.806	E:maj/3
=110	=110	=110	=110	=110	=110	=110	=110
1r	.	1GM	.	guitar	.	225.86	G:maj
=111	=111	=111	=111	=111	=111	=111	=111
1r	.	1GM	.	guitar	.	227.915	G:maj
=112	=112	=112	=112	=112	=112	=112	=112
1r	.	1AM	newline	guitar	.	229.97	A:maj
=113	=113	=113	=113	=113	=113	=113	=113
1r	.	1EM	.	guitar	.	232.049	E:maj/3
=114	=114	=114	=114	=114	=114	=114	=114
1r	.	1GM	.	guitar	.	234.127	G:maj
=115	=115	=115	=115	=115	=115	=115	=115
1r	.	1GM	.	guitar	.	236.205	G:maj
=116	=116	=116	=116	=116	=116	=116	=116
1r	.	1AM	newline	guitar	.	238.283	A:maj
=117	=117	=117	=117	=117	=117	=117	=117
1r	.	1EM	.	guitar	.	239.462	E:maj/3
=118	=118	=118	=118	=118	=118	=118	=118
1r	.	1GM	.	guitar	.	240.64	G:maj
=119	=119	=119	=119	=119	=119	=119	=119
1r	.	1GM	.	guitar	.	241.818	G:maj
r;	.	1r;	.	r	.	242.997	N.C.
r;	.	1r;	.	r	.	245.42	N.C.
*-	*-	*-	*-	*-	*-	*-	*-
!!!BillboardChartDate: 1987/12/12
!!!BillboardPeak: 7
!!!BillboardWeeksOnChart: 22
!!!COC: Heart
!!!ENC: Nathaniel Condit-Schultz
!!!EST: Awating manual error checking and editing.
!!!OTL: Who Will You Run To
!!!RDF**chordsym: original McGill chord annotation + (implied pitch class set, with bass pitch in first position)
!!!RDF**harmony: **recip + pitch class of root + harmonic quality
!!!RDF**leadinstrument: original McGill primary instrumentation annotation
!!!RDF**phrase: newline = linebreak in original McGill transcription
!!!RDF**timestamp: McGill audio timestamp in seconds
!!!RDT: 2017/01/12/
!!!SampleActualRank: 90
!!!SampleID#: 1089
!!!SampleTargetRank: 89
